symbolic/32x32/places/folder-grey-git.svg

<svg xmlns="http://www.w3.org/2000/svg" width="32" height="32" version="1"><rect style="opacity:.2" width="28" height="18" x="2" y="11" rx="1.4" ry="1.4"/><path style="fill:#727272" d="M2 22.6c0 .776.624 1.4 1.4 1.4h25.2c.776 0 1.4-.624 1.4-1.4V7.4c0-.776-.624-1.4-1.4-1.4H16c-2.1 0-2.8-3-4.9-3H3.4C2.624 3 2 3.624 2 4.4"/><rect style="opacity:.2" width="28" height="18" x="2" y="9" rx="1.4" ry="1.4"/><rect style="fill:#e4e4e4" width="24" height="11" x="4" y="8" rx="1.4" ry="1.4"/><rect style="fill:#8e8e8e" width="28" height="18" x="2" y="10" rx="1.4" ry="1.4"/><path style="opacity:.1;fill:#fff" d="M3.4 3C2.625 3 2 3.625 2 4.4v1C2 4.625 2.625 4 3.4 4h7.7c2.1 0 2.8 3 4.9 3h12.6c.775 0 1.4.625 1.4 1.4v-1c0-.775-.625-1.4-1.4-1.4H16c-2.1 0-2.8-3-4.9-3z"/><path style="fill:#323232" d="m12.707 12.996-.707.707 1.152 1.152a1.5 1.5 0 0 0-.148.645 1.5 1.5 0 0 0 1 1.412v4.176a1.5 1.5 0 0 0-1 1.412 1.5 1.5 0 0 0 1.5 1.5 1.5 1.5 0 0 0 1.5-1.5 1.5 1.5 0 0 0-1-1.412v-4.176a1.5 1.5 0 0 0 .145-.06l2.004 2.003a1.5 1.5 0 0 0-.148.645 1.5 1.5 0 0 0 1.5 1.5 1.5 1.5 0 0 0 1.5-1.5 1.5 1.5 0 0 0-1.5-1.5 1.5 1.5 0 0 0-.645.148l-2.004-2.003a1.5 1.5 0 0 0 .149-.645 1.5 1.5 0 0 0-1.5-1.5 1.5 1.5 0 0 0-.645.149l-1.152-1.153z"/></svg>

<svg xmlns="http://www.w3.org/2000/svg" width="32" height="32" version="1">
 <rect style="opacity:0.2" width="28" height="18" x="2" y="11" rx="1.4" ry="1.4"/>
 <path style="fill:#727272" d="M 2,22.6 C 2,23.376 2.6244,24 3.4,24 H 28.6 C 29.376,24 30,23.376 30,22.6 V 7.4 C 30,6.6244 29.376,6 28.6,6 H 16 C 13.9,6 13.2,3 11.1,3 H 3.4 C 2.6244,3 2,3.6244 2,4.4"/>
 <rect style="opacity:0.2" width="28" height="18" x="2" y="9" rx="1.4" ry="1.4"/>
 <rect style="fill:#e4e4e4" width="24" height="11" x="4" y="8" rx="1.4" ry="1.4"/>
 <rect style="fill:#8e8e8e" width="28" height="18" x="2" y="10" rx="1.4" ry="1.4"/>
 <path style="opacity:0.1;fill:#ffffff" d="M 3.4004,3 C 2.6248,3 2,3.6248 2,4.4004 V 5.4004 C 2,4.6248 2.6248,4 3.4004,4 H 11.1 C 13.2,4 13.9,7 16,7 H 28.6 C 29.375,7 30,7.6248 30,8.4004 V 7.4004 C 30,6.6248 29.375,6 28.6,6 H 16 C 13.9,6 13.2,3 11.1,3 Z"/>
 <path style="fill:#323232" d="M 12.707,12.996 12,13.703 13.152,14.855 A 1.5,1.5 0 0 0 13.004,15.5 1.5,1.5 0 0 0 14.004,16.912 V 21.088 A 1.5,1.5 0 0 0 13.004,22.5 1.5,1.5 0 0 0 14.504,24 1.5,1.5 0 0 0 16.004,22.5 1.5,1.5 0 0 0 15.004,21.088 V 16.912 A 1.5,1.5 0 0 0 15.149,16.852 L 17.153,18.855 A 1.5,1.5 0 0 0 17.005,19.5 1.5,1.5 0 0 0 18.505,21 1.5,1.5 0 0 0 20.005,19.5 1.5,1.5 0 0 0 18.505,18 1.5,1.5 0 0 0 17.86,18.148 L 15.856,16.145 A 1.5,1.5 0 0 0 16.005,15.5 1.5,1.5 0 0 0 14.505,14 1.5,1.5 0 0 0 13.86,14.149 L 12.708,12.996 Z"/>
</svg>
